X:118
T:Paddy O'Rafferty's
Z: id:dc-jig-98
M:6/8
L:1/8
K:D Major
dBA|dff cee|def gfe|dff cee|dfe dBA|!
dff cee|def gfe|faf gfe|dfe:|!
dcB|A3 B3|gfe fdB|A3 B3|dfe dcB|!
A3 B3|gfe efg|faf gfe|dfe:|!
dBA|fAA eAA|def gfe|fAA eAA|dfe dBA|!
fAA eAA|def gfe|faf gfe|dfe:|!

